X:15
T:The Washer Woman
S:Petrie's Collection of Strathspey Reels and Country Dances &c., 1790
Z:Steve Wyrick , 3/20/04
N:Petrie's First Collection, page 7
L:1/8
V:1 name = "violin"
V:2 name = "bass" clef=bass middle=d transpose=-24
M:6/8
R:Jig
K:F
[V:1] c/B/|AFF CFF|AFA cBA|BGG G,GG|BGB dcB|
[V:2] z   |F3  A3 |f3  F3 |G3  B3  |g3  G3 |
[V:1] AFF CFF|AFA cBA|TBAB GcB|AFF F2:|
[V:2] F3  A3 |f3  F3 | g3  c3 |f3  F2:|
[V:1] c|fcc Acc|fcf agf|ecc Gcc|ece gfe|
[V:2] z|a3  f3 |a3  f3 |c3  e3 |c'3 c3 |
[V:1] fcc Acc|fag fcA|TBAB GcB|AFF F2c|
[V:2] a3  f3 |f3  F3 | G3  C3 |F2f agf|
[V:1] fcc Acc|fcf agf|ecc Gcc|ece gfe|
[V:2] a3  f3 |a3  f3 |c3  e3 |c3  C3 |
[V:1] dbb caa|Bgg Aff|TBAB GcB|AFF F2|]
[V:2] B3  f3 |g3  f2a| g3  c3 |F3  F2|]
% The above code was written using Phil Taylor's BarFly abc reader/converter/player program.
% Other abc converters (e.g. abc2ps) may require everything after the word "bass" to be
% deleted in the V:2 header line for correct display of notes the bass clef, or require that
% the M: and K: fields be repeated directly under the V:1 header line to display the meter
% and key signature on both staffs.  Some abc MIDI players (e.g. abc2midi) will not play
% multiple-voiced abc code.  -SW
